**kern	**kern
*staff1	*staff2
*clefG2	*clefG2
*k[b-]	*k[b-]
*M2/4	*M2/4
*F:	*F:
8cc'	8r
=121	=121
(32aLLL	2r
32f	.
32g	.
32aJJ	.
32b-LL	.
32cc	.
32dd	.
32eeJJJ)	.
8ff'L	.
8cc'J	.
=122	=122
(4b-	(32ELLL
.	32F
.	32G
.	32AJJ
.	32B-LL
.	32c
.	32d
.	32eJJJ)
4a)	8f'L
.	8c'J
=123	=123
*	*^
(8gL	[2c	8B-L
8fJ	.	8AJ
8eL 8b-	.	8GL
[8fJ [8a	.	8FJ
=124	=124	=124
8fL] 8a]	4.c]	4.C
8d#J 8f#	.	.
8e) 8g	.	.
8r	8c'	8r
*	*v	*v
=125	=125
2r	(32ALLL
.	32F
.	32G
.	32AJJ
.	32B-LL
.	32c
.	32d
.	32eJJJ)
.	8f'L
.	8c'J
=126	=126
(32eLLL	(8B-
32f	.
32g	.
32aJJ	.
32b-LL	4A
32cc	.
32dd	.
32eeJJJ)	.
[4ff	.
.	8A-)
=127	=127
*	*^
8ffL]	(8GnL	2G
(16eeL	8BJ	.
16ddJJ)	.	.
(16ddLL	8dL	.
16cc)	.	.
(16cc	8fJ)	.
16bJJ)	.	.
*	*v	*v
=128	=128
(8ccL	8eL
16ccL	8cJ
16ddJJ)	.
*-	*-
